static/img/menus/ico-sp-qr.svg

<svg width="16" height="16" viewBox="0 0 16 16" fill="none" xmlns="http://www.w3.org/2000/svg">
<path d="M1 6.42308V4.69231C1 3.20539 2.20539 2 3.69231 2H5.42308C5.7417 2 6 2.2583 6 2.57692C6 2.89555 5.7417 3.15385 5.42308 3.15385H3.69231C2.84264 3.15385 2.15385 3.84264 2.15385 4.69231V6.42308C2.15385 6.7417 1.89555 7 1.57692 7C1.2583 7 1 6.7417 1 6.42308Z" fill="black"/>
<path d="M15 10.5769L15 12.3077C15 13.7946 13.7946 15 12.3077 15L10.5769 15C10.2583 15 10 14.7417 10 14.4231C10 14.1045 10.2583 13.8462 10.5769 13.8462L12.3077 13.8462C13.1574 13.8462 13.8462 13.1574 13.8462 12.3077L13.8462 10.5769C13.8462 10.2583 14.1045 10 14.4231 10C14.7417 10 15 10.2583 15 10.5769Z" fill="black"/>
<path d="M10.5769 2L12.3077 2C13.7946 2 15 3.20539 15 4.69231L15 6.42308C15 6.7417 14.7417 7 14.4231 7C14.1045 7 13.8462 6.7417 13.8462 6.42308L13.8462 4.69231C13.8462 3.84264 13.1574 3.15385 12.3077 3.15385L10.5769 3.15385C10.2583 3.15385 10 2.89555 10 2.57692C10 2.2583 10.2583 2 10.5769 2Z" fill="black"/>
<path d="M5.42308 15L3.69231 15C2.20539 15 1 13.7946 1 12.3077L1 10.5769C1 10.2583 1.2583 10 1.57692 10C1.89555 10 2.15385 10.2583 2.15385 10.5769L2.15385 12.3077C2.15385 13.1574 2.84264 13.8462 3.69231 13.8462L5.42308 13.8462C5.7417 13.8462 6 14.1045 6 14.4231C6 14.7417 5.7417 15 5.42308 15Z" fill="black"/>
<path d="M14.4615 8C14.7589 8 15 8.22386 15 8.5C15 8.77614 14.7589 9 14.4615 9H1.53846C1.24108 9 1 8.77614 1 8.5C1 8.22386 1.24108 8 1.53846 8H14.4615Z" fill="black"/>
</svg>

<svg xmlns="http://www.w3.org/2000/svg" width="16" height="16" fill="none" viewBox="0 0 16 16"><path fill="#000" d="M1 6.423v-1.73A2.69 2.69 0 0 1 3.692 2h1.731a.577.577 0 0 1 0 1.154h-1.73c-.85 0-1.54.689-1.54 1.538v1.731a.577.577 0 0 1-1.153 0M15 10.577v1.73A2.69 2.69 0 0 1 12.308 15h-1.731a.577.577 0 0 1 0-1.154h1.73c.85 0 1.54-.689 1.54-1.538v-1.731a.577.577 0 0 1 1.153 0M10.577 2h1.73A2.69 2.69 0 0 1 15 4.692v1.731a.577.577 0 0 1-1.154 0v-1.73c0-.85-.689-1.54-1.538-1.54h-1.731a.577.577 0 0 1 0-1.153M5.423 15h-1.73A2.69 2.69 0 0 1 1 12.308v-1.731a.577.577 0 0 1 1.154 0v1.73c0 .85.689 1.54 1.538 1.54h1.731a.577.577 0 0 1 0 1.153M14.462 8c.297 0 .538.224.538.5s-.241.5-.539.5H1.538C1.241 9 1 8.776 1 8.5s.241-.5.538-.5z"/></svg>
